X:1
T:No Letters From Home
M:6/8
L:1/8
K:F
 C| CDE FAB| c2 d cAF|G-G-G GCA| G3- G2 C| CDE FAB| c2 d cAF| GGG GCA|\
 F3- F2 F| FED A3/2 A/2 A| d2 e fed| cAG FGA| G3- G2 C| CDE FAB| c2 f fFc|\
 BBB GCA| F3- F2 F| FED A3/2 A/2 A| d2 e fed| cAG FGA| G3- G2 C| CDE FAB|\
 c2 f fFc| BBB GCA| F3- F2||
